usr/share/icons/biglinux-icons-material/24/actions/distribute-horizontal-baseline.svg

<svg xmlns="http://www.w3.org/2000/svg" viewBox="0 0 24 24">
  <defs id="defs3051">
    <style type="text/css" id="current-color-scheme">
      .ColorScheme-Text {
        color:#dedede;
      }
      </style>
  </defs>
 <path style="fill:currentColor;fill-opacity:1;stroke:none" 
     d="M 7 4 L 4 6 L 7 8 L 7 4 z M 11 4 L 11 8 L 14 6 L 11 4 z M 7.1152344 9.0292969 C 5.942497 9.0547767 5.0412738 9.2448894 4.3867188 9.5253906 L 4.7558594 10.789062 C 5.0694967 10.687003 6.2557106 10.330078 6.9511719 10.330078 L 7.046875 10.330078 C 8.0150675 10.368298 8.0820312 10.698802 8.0820312 11.476562 L 8.0820312 11.783203 L 7.578125 11.859375 C 5.2326354 12.178137 3.9785156 12.445857 3.9785156 14.128906 C 3.9785156 15.30194 4.8920929 16.029297 6.2148438 16.029297 C 7.1284899 16.029297 7.7281625 15.672007 8.3417969 15.1875 L 8.5332031 15.900391 L 9.9785156 15.900391 L 9.9785156 11.183594 C 9.9785156 9.7428123 8.9137318 9.0292969 7.2773438 9.0292969 L 7.1152344 9.0292969 z M 13.242188 10.570312 C 13.242188 12.468813 14.583287 14.041059 15.591797 15.005859 C 14.393007 16.223659 12.914798 16.772328 10.210938 17.236328 L 10.488281 18.570312 C 16.515661 17.535912 19.210938 13.745811 19.210938 10.570312 L 17.734375 10.570312 C 17.734375 11.493813 17.2679 13.276291 16.46875 13.962891 C 15.65296 13.189791 14.668831 11.994697 14.431641 10.591797 L 13.242188 10.570312 z M 8.0820312 12.777344 L 8.0820312 14.345703 C 7.5774897 14.664466 7.1955709 14.894531 6.5410156 14.894531 C 5.9546469 14.894531 5.6679687 14.54896 5.6679688 14.064453 C 5.6679688 13.146426 6.5281055 12.993766 7.578125 12.853516 L 8.0820312 12.777344 z "
     class="ColorScheme-Text"
     />
</svg>

<svg xmlns="http://www.w3.org/2000/svg" viewBox="0 0 24 24"><path d="M7 4 4 6l3 2V4zm4 0v4l3-2-3-2zM7.115 9.03c-1.173.025-2.074.215-2.728.495l.369 1.264c.313-.102 1.5-.459 2.195-.459h.096c.968.038 1.035.369 1.035 1.147v.306l-.504.076c-2.345.32-3.6.587-3.6 2.27 0 1.173.914 1.9 2.237 1.9.913 0 1.513-.357 2.127-.841l.191.712H9.98v-4.716c0-1.441-1.065-2.155-2.702-2.155h-.162zm6.127 1.54c0 1.899 1.341 3.471 2.35 4.436-1.199 1.218-2.677 1.766-5.381 2.23l.277 1.334c6.028-1.034 8.723-4.824 8.723-8h-1.477c0 .924-.466 2.706-1.265 3.393-.816-.773-1.8-1.968-2.037-3.371l-1.19-.022zm-5.16 2.207v1.569c-.505.318-.886.549-1.541.549-.586 0-.873-.346-.873-.83 0-.919.86-1.071 1.91-1.211l.504-.077z" style="fill:currentColor;fill-opacity:1;stroke:none;color:#dedede"/></svg>
